icons/py.svg

<?xml version="1.0" ?>
<svg xmlns="http://www.w3.org/2000/svg" xmlns:ev="http://www.w3.org/2001/xml-events" xmlns:xlink="http://www.w3.org/1999/xlink" baseProfile="full" height="600px" version="1.1" viewBox="-592.8222490919826 -1024.9466712003402 11431.513205117772 12292.671476581061" width="558px">
	<defs/>
	<path d="M 2995.0,10139.0 L 2675.0,10040.0 L 2040.0,9920.0 C 1691.0,9854.0 1382.0,9795.0 1354.0,9790.0 L 1303.0,9779.0 L 1220.0,9547.0 C 1174.0,9419.0 1129.0,9299.0 1119.0,9280.0 C 1109.0,9261.0 1016.0,9109.0 912.0,8942.0 L 722.0,8640.0 L 727.0,8322.0 L 732.0,8005.0 L 666.0,7758.0 C 630.0,7622.0 546.0,7302.0 479.0,7048.0 C 335.0,6495.0 337.0,6513.0 426.0,6433.0 C 459.0,6404.0 494.0,6380.0 505.0,6380.0 C 516.0,6380.0 555.0,6356.0 591.0,6326.0 C 639.0,6288.0 670.0,6271.0 700.0,6266.0 C 727.0,6262.0 757.0,6247.0 779.0,6228.0 C 813.0,6198.0 815.0,6193.0 812.0,6144.0 C 808.0,6093.0 809.0,6092.0 839.0,6085.0 C 866.0,6079.0 870.0,6074.0 870.0,6046.0 C 870.0,6024.0 878.0,6006.0 896.0,5989.0 C 911.0,5976.0 931.0,5945.0 941.0,5922.0 C 952.0,5898.0 980.0,5855.0 1004.0,5827.0 C 1054.0,5768.0 1076.0,5727.0 1096.0,5660.0 C 1112.0,5606.0 1176.0,5540.0 1212.0,5540.0 C 1223.0,5540.0 1256.0,5523.0 1284.0,5501.0 C 1312.0,5480.0 1347.0,5455.0 1361.0,5446.0 C 1379.0,5434.0 1389.0,5417.0 1394.0,5391.0 C 1399.0,5358.0 1407.0,5348.0 1444.0,5326.0 C 1469.0,5312.0 1499.0,5300.0 1513.0,5300.0 C 1540.0,5300.0 1574.0,5268.0 1589.0,5228.0 C 1596.0,5209.0 1607.0,5200.0 1622.0,5200.0 C 1636.0,5200.0 1657.0,5186.0 1675.0,5166.0 C 1695.0,5143.0 1738.0,5117.0 1800.0,5090.0 C 1852.0,5067.0 1909.0,5035.0 1927.0,5020.0 C 1944.0,5004.0 1989.0,4976.0 2027.0,4956.0 C 2121.0,4906.0 2126.0,4901.0 2134.0,4851.0 C 2138.0,4821.0 2155.0,4789.0 2185.0,4751.0 C 2210.0,4719.0 2230.0,4687.0 2230.0,4678.0 C 2230.0,4652.0 2265.0,4630.0 2307.0,4630.0 C 2329.0,4630.0 2373.0,4621.0 2405.0,4610.0 C 2437.0,4599.0 2475.0,4590.0 2489.0,4590.0 C 2503.0,4590.0 2557.0,4580.0 2608.0,4568.0 C 2690.0,4548.0 2703.0,4542.0 2720.0,4515.0 C 2731.0,4498.0 2759.0,4470.0 2784.0,4452.0 C 2825.0,4423.0 2835.0,4420.0 2907.0,4420.0 C 2969.0,4420.0 2990.0,4416.0 3010.0,4400.0 C 3031.0,4383.0 3051.0,4380.0 3140.0,4380.0 C 3205.0,4380.0 3264.0,4386.0 3295.0,4395.0 L 3344.0,4410.0 L 3460.0,4333.0 C 3523.0,4291.0 3658.0,4203.0 3759.0,4137.0 C 3870.0,4066.0 3987.0,3981.0 4051.0,3924.0 C 4111.0,3872.0 4163.0,3830.0 4169.0,3830.0 C 4174.0,3830.0 4185.0,3822.0 4192.0,3813.0 C 4207.0,3793.0 4244.0,3770.0 4261.0,3770.0 C 4268.0,3770.0 4293.0,3754.0 4317.0,3734.0 C 4341.0,3714.0 4377.0,3694.0 4398.0,3688.0 C 4418.0,3683.0 4444.0,3670.0 4455.0,3661.0 C 4466.0,3651.0 4506.0,3626.0 4544.0,3605.0 C 4583.0,3584.0 4649.0,3543.0 4692.0,3513.0 C 4752.0,3473.0 4780.0,3460.0 4807.0,3460.0 C 4828.0,3460.0 4852.0,3452.0 4863.0,3442.0 C 4880.0,3426.0 4956.0,3411.0 5101.0,3394.0 C 5145.0,3388.0 5150.0,3385.0 5209.0,3304.0 C 5244.0,3258.0 5279.0,3220.0 5287.0,3220.0 C 5296.0,3220.0 5323.0,3236.0 5347.0,3256.0 L 5392.0,3293.0 L 5443.0,3242.0 C 5472.0,3215.0 5510.0,3185.0 5528.0,3176.0 C 5545.0,3167.0 5560.0,3153.0 5560.0,3145.0 C 5560.0,3134.0 5571.0,3130.0 5598.0,3130.0 C 5619.0,3130.0 5640.0,3126.0 5645.0,3121.0 C 5651.0,3116.0 5685.0,3110.0 5722.0,3108.0 C 5789.0,3104.0 5790.0,3104.0 5858.0,3040.0 C 5913.0,2989.0 5928.0,2968.0 5929.0,2945.0 C 5930.0,2926.0 5947.0,2894.0 5977.0,2855.0 C 6003.0,2822.0 6034.0,2777.0 6045.0,2755.0 C 6058.0,2731.0 6081.0,2707.0 6103.0,2695.0 C 6145.0,2672.0 6149.0,2653.0 6127.0,2559.0 C 6114.0,2504.0 6064.0,2440.0 6035.0,2440.0 C 6028.0,2440.0 6015.0,2431.0 6005.0,2420.0 C 5995.0,2409.0 5978.0,2400.0 5968.0,2400.0 C 5958.0,2400.0 5938.0,2392.0 5924.0,2383.0 C 5901.0,2369.0 5899.0,2361.0 5904.0,2329.0 C 5909.0,2295.0 5907.0,2291.0 5870.0,2266.0 C 5834.0,2242.0 5831.0,2238.0 5841.0,2216.0 C 5859.0,2177.0 5845.0,2146.0 5805.0,2131.0 C 5785.0,2124.0 5771.0,2113.0 5773.0,2107.0 C 5792.0,2062.0 5792.0,2060.0 5776.0,2060.0 C 5753.0,2060.0 5734.0,2020.0 5751.0,2009.0 C 5759.0,2004.0 5771.0,2000.0 5778.0,2000.0 C 5803.0,2000.0 5789.0,1962.0 5751.0,1932.0 C 5729.0,1914.0 5708.0,1900.0 5705.0,1900.0 C 5702.0,1900.0 5683.0,1884.0 5663.0,1865.0 C 5643.0,1845.0 5615.0,1827.0 5601.0,1824.0 C 5537.0,1810.0 5520.0,1798.0 5520.0,1768.0 C 5520.0,1752.0 5514.0,1737.0 5505.0,1734.0 C 5493.0,1729.0 5493.0,1725.0 5506.0,1705.0 C 5528.0,1672.0 5515.0,1650.0 5473.0,1650.0 C 5441.0,1650.0 5438.0,1648.0 5445.0,1628.0 C 5457.0,1586.0 5449.0,1535.0 5425.0,1499.0 C 5395.0,1456.0 5394.0,1436.0 5421.0,1417.0 C 5441.0,1402.0 5441.0,1402.0 5422.0,1388.0 C 5411.0,1381.0 5398.0,1358.0 5392.0,1337.0 C 5382.0,1302.0 5383.0,1299.0 5412.0,1277.0 C 5441.0,1254.0 5441.0,1252.0 5429.0,1212.0 C 5418.0,1175.0 5413.0,1170.0 5388.0,1170.0 C 5360.0,1170.0 5360.0,1170.0 5360.0,1104.0 C 5360.0,1044.0 5357.0,1035.0 5331.0,1011.0 C 5315.0,996.0 5291.0,979.0 5276.0,972.0 C 5246.0,959.0 5243.0,935.0 5267.0,908.0 C 5282.0,891.0 5282.0,890.0 5263.0,890.0 C 5252.0,890.0 5235.0,881.0 5225.0,870.0 C 5216.0,860.0 5191.0,846.0 5171.0,839.0 C 5127.0,825.0 5099.0,793.0 5106.0,764.0 C 5115.0,730.0 5085.0,684.0 5051.0,677.0 C 5024.0,671.0 5019.0,665.0 5014.0,630.0 C 5008.0,595.0 5004.0,590.0 4980.0,590.0 C 4920.0,590.0 4897.0,504.0 4945.0,462.0 C 4964.0,445.0 4970.0,431.0 4970.0,397.0 C 4970.0,373.0 4972.0,351.0 4975.0,348.0 C 4978.0,345.0 5009.0,351.0 5042.0,361.0 C 5086.0,375.0 5129.0,380.0 5190.0,379.0 C 5252.0,377.0 5289.0,382.0 5323.0,395.0 C 5354.0,407.0 5380.0,410.0 5402.0,405.0 C 5420.0,401.0 5487.0,394.0 5550.0,390.0 C 5850.0,368.0 5945.0,349.0 6007.0,301.0 C 6036.0,278.0 6107.0,255.0 6185.0,244.0 C 6212.0,240.0 6248.0,229.0 6265.0,219.0 C 6285.0,206.0 6314.0,200.0 6357.0,200.0 C 6407.0,200.0 6432.0,193.0 6491.0,165.0 C 6543.0,140.0 6578.0,130.0 6611.0,130.0 C 6663.0,130.0 6737.0,159.0 6765.0,190.0 C 6778.0,204.0 6796.0,210.0 6828.0,210.0 C 6869.0,210.0 6877.0,206.0 6926.0,155.0 C 6956.0,125.0 6987.0,100.0 6996.0,100.0 C 7005.0,100.0 7029.0,114.0 7050.0,130.0 C 7086.0,158.0 7093.0,160.0 7179.0,160.0 C 7256.0,160.0 7270.0,157.0 7270.0,144.0 C 7270.0,106.0 7351.0,14.0 7392.0,5.0 C 7428.0,-3.0 7466.0,27.0 7475.0,71.0 C 7480.0,91.0 7488.0,100.0 7500.0,100.0 C 7527.0,100.0 7540.0,130.0 7540.0,189.0 C 7540.0,236.0 7542.0,240.0 7564.0,240.0 C 7581.0,240.0 7602.0,255.0 7632.0,290.0 C 7673.0,338.0 7677.0,340.0 7728.0,340.0 C 7757.0,340.0 7797.0,333.0 7817.0,325.0 C 7836.0,317.0 7874.0,310.0 7901.0,310.0 C 7948.0,310.0 7950.0,309.0 7976.0,264.0 C 8000.0,223.0 8085.0,160.0 8115.0,160.0 C 8121.0,161.0 8140.0,181.0 8158.0,205.0 C 8178.0,232.0 8209.0,259.0 8237.0,272.0 C 8279.0,292.0 8286.0,300.0 8295.0,340.0 C 8302.0,365.0 8313.0,395.0 8320.0,406.0 C 8332.0,425.0 8331.0,431.0 8311.0,456.0 C 8292.0,480.0 8291.0,486.0 8303.0,488.0 C 8312.0,490.0 8327.0,511.0 8339.0,534.0 C 8356.0,572.0 8362.0,577.0 8384.0,573.0 C 8398.0,570.0 8421.0,571.0 8435.0,574.0 C 8457.0,580.0 8460.0,586.0 8460.0,621.0 C 8460.0,645.0 8469.0,679.0 8481.0,700.0 C 8501.0,736.0 8508.0,739.0 8567.0,750.0 C 8602.0,756.0 8642.0,765.0 8657.0,771.0 C 8678.0,779.0 8687.0,777.0 8705.0,760.0 C 8730.0,737.0 8732.0,737.0 8783.0,751.0 C 8819.0,761.0 8820.0,762.0 8820.0,808.0 C 8820.0,851.0 8824.0,860.0 8865.0,900.0 C 8893.0,927.0 8930.0,951.0 8958.0,961.0 C 9001.0,975.0 9006.0,981.0 9021.0,1023.0 C 9045.0,1096.0 9066.0,1113.0 9121.0,1106.0 C 9167.0,1100.0 9168.0,1100.0 9192.0,1140.0 C 9214.0,1178.0 9215.0,1186.0 9206.0,1240.0 L 9196.0,1299.0 L 9248.0,1345.0 C 9285.0,1378.0 9303.0,1403.0 9311.0,1433.0 C 9317.0,1456.0 9329.0,1489.0 9338.0,1505.0 C 9353.0,1533.0 9372.0,1642.0 9368.0,1685.0 C 9368.0,1696.0 9368.0,1725.0 9370.0,1750.0 C 9376.0,1845.0 9375.0,1896.0 9367.0,1927.0 C 9360.0,1956.0 9361.0,1960.0 9377.0,1960.0 C 9407.0,1960.0 9420.0,1981.0 9420.0,2029.0 C 9420.0,2055.0 9427.0,2084.0 9435.0,2094.0 C 9456.0,2122.0 9454.0,2153.0 9429.0,2185.0 C 9413.0,2204.0 9406.0,2231.0 9402.0,2280.0 C 9398.0,2347.0 9398.0,2349.0 9420.0,2343.0 C 9440.0,2338.0 9442.0,2340.0 9439.0,2381.0 C 9438.0,2405.0 9442.0,2435.0 9448.0,2447.0 C 9460.0,2470.0 9453.0,2523.0 9431.0,2584.0 C 9417.0,2619.0 9444.0,2679.0 9503.0,2747.0 C 9528.0,2776.0 9554.0,2817.0 9560.0,2837.0 C 9567.0,2858.0 9588.0,2899.0 9608.0,2928.0 C 9642.0,2979.0 9643.0,2983.0 9631.0,3017.0 C 9617.0,3056.0 9622.0,3117.0 9647.0,3183.0 C 9655.0,3206.0 9665.0,3255.0 9670.0,3292.0 C 9675.0,3341.0 9685.0,3367.0 9705.0,3394.0 C 9736.0,3434.0 9800.0,3609.0 9800.0,3652.0 C 9800.0,3667.0 9790.0,3700.0 9778.0,3725.0 L 9756.0,3770.0 L 9796.0,3813.0 C 9872.0,3892.0 9890.0,4006.0 9833.0,4048.0 C 9813.0,4063.0 9807.0,4079.0 9798.0,4143.0 C 9788.0,4211.0 9789.0,4225.0 9805.0,4260.0 C 9820.0,4293.0 9828.0,4300.0 9852.0,4300.0 C 9897.0,4300.0 9890.0,4339.0 9838.0,4370.0 C 9815.0,4384.0 9772.0,4420.0 9741.0,4451.0 C 9697.0,4496.0 9661.0,4519.0 9569.0,4562.0 C 9460.0,4614.0 9451.0,4616.0 9426.0,4603.0 C 9411.0,4595.0 9376.0,4586.0 9349.0,4583.0 C 9313.0,4579.0 9284.0,4567.0 9251.0,4543.0 C 9117.0,4446.0 9095.0,4436.0 8971.0,4420.0 C 8935.0,4415.0 8885.0,4407.0 8861.0,4402.0 C 8828.0,4394.0 8807.0,4396.0 8776.0,4407.0 C 8753.0,4415.0 8714.0,4420.0 8688.0,4419.0 C 8651.0,4417.0 8635.0,4422.0 8607.0,4443.0 L 8572.0,4469.0 L 8565.0,4607.0 C 8557.0,4778.0 8550.0,4807.0 8504.0,4850.0 L 8468.0,4885.0 L 8469.0,5035.0 C 8469.0,5118.0 8467.0,5247.0 8464.0,5322.0 C 8459.0,5459.0 8459.0,5459.0 8429.0,5484.0 C 8405.0,5505.0 8400.0,5516.0 8400.0,5554.0 C 8400.0,5578.0 8391.0,5619.0 8380.0,5645.0 C 8369.0,5671.0 8360.0,5706.0 8360.0,5723.0 C 8360.0,5741.0 8353.0,5780.0 8345.0,5810.0 C 8325.0,5883.0 8326.0,5894.0 8353.0,5927.0 C 8372.0,5951.0 8375.0,5966.0 8374.0,6032.0 C 8373.0,6117.0 8366.0,6130.0 8314.0,6155.0 C 8259.0,6181.0 8238.0,6234.0 8246.0,6324.0 L 8252.0,6397.0 L 8192.0,6440.0 C 8148.0,6471.0 8128.0,6492.0 8119.0,6518.0 L 8108.0,6553.0 L 8045.0,6547.0 C 8011.0,6544.0 7979.0,6544.0 7975.0,6548.0 C 7965.0,6558.0 7869.0,6559.0 7843.0,6549.0 C 7830.0,6544.0 7818.0,6545.0 7815.0,6550.0 C 7811.0,6556.0 7795.0,6560.0 7779.0,6560.0 C 7701.0,6560.0 7543.0,6689.0 7518.0,6772.0 L 7507.0,6811.0 L 7426.0,6808.0 L 7345.0,6805.0 L 7335.0,6751.0 C 7326.0,6700.0 7321.0,6694.0 7267.0,6657.0 C 7236.0,6636.0 7210.0,6612.0 7210.0,6604.0 C 7210.0,6583.0 7200.0,6587.0 7167.0,6618.0 C 7140.0,6643.0 7138.0,6644.0 7126.0,6628.0 C 7117.0,6616.0 7099.0,6610.0 7072.0,6610.0 C 7035.0,6610.0 7029.0,6606.0 7012.0,6574.0 L 6994.0,6539.0 L 6957.0,6569.0 C 6916.0,6601.0 6830.0,6617.0 6745.0,6608.0 C 6707.0,6603.0 6701.0,6605.0 6691.0,6626.0 C 6683.0,6645.0 6672.0,6650.0 6643.0,6650.0 C 6622.0,6651.0 6594.0,6657.0 6580.0,6664.0 C 6566.0,6672.0 6549.0,6675.0 6540.0,6670.0 C 6532.0,6666.0 6500.0,6660.0 6470.0,6656.0 C 6427.0,6651.0 6403.0,6654.0 6362.0,6670.0 C 6333.0,6681.0 6286.0,6690.0 6255.0,6690.0 C 6226.0,6690.0 6198.0,6695.0 6194.0,6701.0 C 6188.0,6711.0 6164.0,6708.0 6127.0,6695.0 C 6118.0,6691.0 6102.0,6706.0 6080.0,6739.0 C 6053.0,6781.0 6043.0,6790.0 6016.0,6792.0 C 5959.0,6794.0 5925.0,6789.0 5895.0,6771.0 C 5872.0,6758.0 5855.0,6756.0 5820.0,6762.0 C 5764.0,6772.0 5694.0,6819.0 5697.0,6846.0 C 5702.0,6892.0 5719.0,6958.0 5734.0,6992.0 C 5746.0,7020.0 5747.0,7036.0 5740.0,7055.0 C 5731.0,7079.0 5734.0,7191.0 5746.0,7247.0 C 5748.0,7260.0 5765.0,7277.0 5785.0,7288.0 L 5821.0,7306.0 L 5784.0,7319.0 L 5748.0,7332.0 L 5753.0,7389.0 C 5757.0,7435.0 5754.0,7449.0 5738.0,7467.0 C 5720.0,7486.0 5719.0,7494.0 5729.0,7539.0 C 5736.0,7571.0 5756.0,7612.0 5785.0,7651.0 C 5836.0,7721.0 5843.0,7755.0 5806.0,7764.0 C 5770.0,7773.0 5769.0,7810.0 5803.0,7839.0 C 5851.0,7879.0 5863.0,7914.0 5855.0,7989.0 C 5851.0,8025.0 5844.0,8063.0 5838.0,8074.0 C 5830.0,8088.0 5834.0,8098.0 5853.0,8119.0 C 5866.0,8133.0 5880.0,8157.0 5884.0,8173.0 C 5890.0,8197.0 5886.0,8202.0 5853.0,8218.0 C 5833.0,8227.0 5806.0,8246.0 5792.0,8259.0 L 5769.0,8282.0 L 5789.0,8304.0 C 5801.0,8316.0 5810.0,8338.0 5810.0,8352.0 C 5810.0,8373.0 5802.0,8381.0 5773.0,8393.0 L 5735.0,8408.0 L 5782.0,8436.0 C 5808.0,8452.0 5829.0,8467.0 5830.0,8470.0 C 5830.0,8473.0 5812.0,8496.0 5789.0,8523.0 C 5751.0,8567.0 5747.0,8569.0 5727.0,8555.0 C 5707.0,8541.0 5706.0,8542.0 5693.0,8578.0 C 5686.0,8598.0 5680.0,8631.0 5679.0,8650.0 C 5679.0,8669.0 5673.0,8703.0 5666.0,8725.0 C 5656.0,8758.0 5656.0,8769.0 5668.0,8788.0 C 5681.0,8809.0 5679.0,8814.0 5636.0,8864.0 C 5581.0,8928.0 5570.0,8955.0 5570.0,9022.0 C 5570.0,9076.0 5567.0,9077.0 5506.0,9054.0 C 5494.0,9050.0 5490.0,9054.0 5490.0,9069.0 C 5490.0,9081.0 5486.0,9090.0 5480.0,9090.0 C 5475.0,9090.0 5470.0,9095.0 5470.0,9100.0 C 5470.0,9106.0 5478.0,9110.0 5488.0,9110.0 C 5498.0,9110.0 5511.0,9115.0 5518.0,9122.0 C 5527.0,9131.0 5525.0,9139.0 5509.0,9157.0 C 5489.0,9177.0 5488.0,9183.0 5500.0,9223.0 C 5506.0,9247.0 5510.0,9280.0 5509.0,9296.0 C 5507.0,9312.0 5512.0,9340.0 5519.0,9358.0 C 5531.0,9387.0 5531.0,9396.0 5515.0,9428.0 C 5506.0,9448.0 5495.0,9493.0 5492.0,9527.0 L 5487.0,9589.0 L 4951.0,9889.0 C 4656.0,10054.0 4408.0,10191.0 4400.0,10194.0 C 4384.0,10200.0 3441.0,10241.0 3362.0,10239.0 C 3333.0,10238.0 3191.0,10200.0 2995.0,10139.0" fill="pink"/>
</svg>

<?xml version="1.0" standalone="no"?>
<!DOCTYPE svg PUBLIC "-//W3C//DTD SVG 20010904//EN"
 "http://www.w3.org/TR/2001/REC-SVG-20010904/DTD/svg10.dtd">
<svg version="1.0" xmlns="http://www.w3.org/2000/svg"
 width="1024.000000pt" height="1024.000000pt" viewBox="0 0 1024.000000 1024.000000"
 preserveAspectRatio="xMidYMid meet">
<metadata>
Created by potrace 1.10, written by Peter Selinger 2001-2011
</metadata>
<g transform="translate(0.000000,1024.000000) scale(0.100000,-0.100000)"
fill="#000000" stroke="none">
<path d="M2995 10139 l-320 -99 -635 -120 c-349 -66 -658 -125 -686 -130 l-51
-11 -83 -232 c-46 -128 -91 -248 -101 -267 -10 -19 -103 -171 -207 -338 l-190
-302 5 -318 5 -317 -66 -247 c-36 -136 -120 -456 -187 -710 -144 -553 -142
-535 -53 -615 33 -29 68 -53 79 -53 11 0 50 -24 86 -54 48 -38 79 -55 109 -60
27 -4 57 -19 79 -38 34 -30 36 -35 33 -84 -4 -51 -3 -52 27 -59 27 -6 31 -11
31 -39 0 -22 8 -40 26 -57 15 -13 35 -44 45 -67 11 -24 39 -67 63 -95 50 -59
72 -100 92 -167 16 -54 80 -120 116 -120 11 0 44 -17 72 -39 28 -21 63 -46 77
-55 18 -12 28 -29 33 -55 5 -33 13 -43 50 -65 25 -14 55 -26 69 -26 27 0 61
-32 76 -72 7 -19 18 -28 33 -28 14 0 35 -14 53 -34 20 -23 63 -49 125 -76 52
-23 109 -55 127 -70 17 -16 62 -44 100 -64 94 -50 99 -55 107 -105 4 -30 21
-62 51 -100 25 -32 45 -64 45 -73 0 -26 35 -48 77 -48 22 0 66 -9 98 -20 32
-11 70 -20 84 -20 14 0 68 -10 119 -22 82 -20 95 -26 112 -53 11 -17 39 -45
64 -63 41 -29 51 -32 123 -32 62 0 83 -4 103 -20 21 -17 41 -20 130 -20 65 0
124 6 155 15 l49 15 116 -77 c63 -42 198 -130 299 -196 111 -71 228 -156 292
-213 60 -52 112 -94 118 -94 5 0 16 -8 23 -17 15 -20 52 -43 69 -43 7 0 32
-16 56 -36 24 -20 60 -40 81 -46 20 -5 46 -18 57 -27 11 -10 51 -35 89 -56 39
-21 105 -62 148 -92 60 -40 88 -53 115 -53 21 0 45 -8 56 -18 17 -16 93 -31
238 -48 44 -6 49 -9 108 -90 35 -46 70 -84 78 -84 9 0 36 16 60 36 l45 37 51
-51 c29 -27 67 -57 85 -66 17 -9 32 -23 32 -31 0 -11 11 -15 38 -15 21 0 42
-4 47 -9 6 -5 40 -11 77 -13 67 -4 68 -4 136 -68 55 -51 70 -72 71 -95 1 -19
18 -51 48 -90 26 -33 57 -78 68 -100 13 -24 36 -48 58 -60 42 -23 46 -42 24
-136 -13 -55 -63 -119 -92 -119 -7 0 -20 -9 -30 -20 -10 -11 -27 -20 -37 -20
-10 0 -30 -8 -44 -17 -23 -14 -25 -22 -20 -54 5 -34 3 -38 -34 -63 -36 -24
-39 -28 -29 -50 18 -39 4 -70 -36 -85 -20 -7 -34 -18 -32 -24 19 -45 19 -47 3
-47 -23 0 -42 -40 -25 -51 8 -5 20 -9 27 -9 25 0 11 -38 -27 -68 -22 -18 -43
-32 -46 -32 -3 0 -22 -16 -42 -35 -20 -20 -48 -38 -62 -41 -64 -14 -81 -26
-81 -56 0 -16 -6 -31 -15 -34 -12 -5 -12 -9 1 -29 22 -33 9 -55 -33 -55 -32 0
-35 -2 -28 -22 12 -42 4 -93 -20 -129 -30 -43 -31 -63 -4 -82 20 -15 20 -15 1
-29 -11 -7 -24 -30 -30 -51 -10 -35 -9 -38 20 -60 29 -23 29 -25 17 -65 -11
-37 -16 -42 -41 -42 -28 0 -28 0 -28 -66 0 -60 -3 -69 -29 -93 -16 -15 -40
-32 -55 -39 -30 -13 -33 -37 -9 -64 15 -17 15 -18 -4 -18 -11 0 -28 -9 -38
-20 -9 -10 -34 -24 -54 -31 -44 -14 -72 -46 -65 -75 9 -34 -21 -80 -55 -87
-27 -6 -32 -12 -37 -47 -6 -35 -10 -40 -34 -40 -60 0 -83 -86 -35 -128 19 -17
25 -31 25 -65 0 -24 2 -46 5 -49 3 -3 34 3 67 13 44 14 87 19 148 18 62 -2 99
3 133 16 31 12 57 15 79 10 18 -4 85 -11 148 -15 300 -22 395 -41 457 -89 29
-23 100 -46 178 -57 27 -4 63 -15 80 -25 20 -13 49 -19 92 -19 50 0 75 -7 134
-35 52 -25 87 -35 120 -35 52 0 126 29 154 60 13 14 31 20 63 20 41 0 49 -4
98 -55 30 -30 61 -55 70 -55 9 0 33 14 54 30 36 28 43 30 129 30 77 0 91 -3
91 -16 0 -38 81 -130 122 -139 36 -8 74 22 83 66 5 20 13 29 25 29 27 0 40 30
40 89 0 47 2 51 24 51 17 0 38 15 68 50 41 48 45 50 96 50 29 0 69 -7 89 -15
19 -8 57 -15 84 -15 47 0 49 -1 75 -46 24 -41 109 -104 139 -104 6 1 25 21 43
45 20 27 51 54 79 67 42 20 49 28 58 68 7 25 18 55 25 66 12 19 11 25 -9 50
-19 24 -20 30 -8 32 9 2 24 23 36 46 17 38 23 43 45 39 14 -3 37 -2 51 1 22 6
25 12 25 47 0 24 9 58 21 79 20 36 27 39 86 50 35 6 75 15 90 21 21 8 30 6 48
-11 25 -23 27 -23 78 -9 36 10 37 11 37 57 0 43 4 52 45 92 28 27 65 51 93 61
43 14 48 20 63 62 24 73 45 90 100 83 46 -6 47 -6 71 34 22 38 23 46 14 100
l-10 59 52 46 c37 33 55 58 63 88 6 23 18 56 27 72 15 28 34 137 30 180 0 11
0 40 2 65 6 95 5 146 -3 177 -7 29 -6 33 10 33 30 0 43 21 43 69 0 26 7 55 15
65 21 28 19 59 -6 91 -16 19 -23 46 -27 95 -4 67 -4 69 18 63 20 -5 22 -3 19
38 -1 24 3 54 9 66 12 23 5 76 -17 137 -14 35 13 95 72 163 25 29 51 70 57 90
7 21 28 62 48 91 34 51 35 55 23 89 -14 39 -9 100 16 166 8 23 18 72 23 109 5
49 15 75 35 102 31 40 95 215 95 258 0 15 -10 48 -22 73 l-22 45 40 43 c76 79
94 193 37 235 -20 15 -26 31 -35 95 -10 68 -9 82 7 117 15 33 23 40 47 40 45
0 38 39 -14 70 -23 14 -66 50 -97 81 -44 45 -80 68 -172 111 -109 52 -118 54
-143 41 -15 -8 -50 -17 -77 -20 -36 -4 -65 -16 -98 -40 -134 -97 -156 -107
-280 -123 -36 -5 -86 -13 -110 -18 -33 -8 -54 -6 -85 5 -23 8 -62 13 -88 12
-37 -2 -53 3 -81 24 l-35 26 -7 138 c-8 171 -15 200 -61 243 l-36 35 1 150 c0
83 -2 212 -5 287 -5 137 -5 137 -35 162 -24 21 -29 32 -29 70 0 24 -9 65 -20
91 -11 26 -20 61 -20 78 0 18 -7 57 -15 87 -20 73 -19 84 8 117 19 24 22 39
21 105 -1 85 -8 98 -60 123 -55 26 -76 79 -68 169 l6 73 -60 43 c-44 31 -64
52 -73 78 l-11 35 -63 -6 c-34 -3 -66 -3 -70 1 -10 10 -106 11 -132 1 -13 -5
-25 -4 -28 1 -4 6 -20 10 -36 10 -78 0 -236 129 -261 212 l-11 39 -81 -3 -81
-3 -10 -54 c-9 -51 -14 -57 -68 -94 -31 -21 -57 -45 -57 -53 0 -21 -10 -17
-43 14 -27 25 -29 26 -41 10 -9 -12 -27 -18 -54 -18 -37 0 -43 -4 -60 -36
l-18 -35 -37 30 c-41 32 -127 48 -212 39 -38 -5 -44 -3 -54 18 -8 19 -19 24
-48 24 -21 1 -49 7 -63 14 -14 8 -31 11 -40 6 -8 -4 -40 -10 -70 -14 -43 -5
-67 -2 -108 14 -29 11 -76 20 -107 20 -29 0 -57 5 -61 11 -6 10 -30 7 -67 -6
-9 -4 -25 11 -47 44 -27 42 -37 51 -64 53 -57 2 -91 -3 -121 -21 -23 -13 -40
-15 -75 -9 -56 10 -126 57 -123 84 5 46 22 112 37 146 12 28 13 44 6 63 -9 24
-6 136 6 192 2 13 19 30 39 41 l36 18 -37 13 -36 13 5 57 c4 46 1 60 -15 78
-18 19 -19 27 -9 72 7 32 27 73 56 112 51 70 58 104 21 113 -36 9 -37 46 -3
75 48 40 60 75 52 150 -4 36 -11 74 -17 85 -8 14 -4 24 15 45 13 14 27 38 31
54 6 24 2 29 -31 45 -20 9 -47 28 -61 41 l-23 23 20 22 c12 12 21 34 21 48 0
21 -8 29 -37 41 l-38 15 47 28 c26 16 47 31 48 34 0 3 -18 26 -41 53 -38 44
-42 46 -62 32 -20 -14 -21 -13 -34 23 -7 20 -13 53 -14 72 0 19 -6 53 -13 75
-10 33 -10 44 2 63 13 21 11 26 -32 76 -55 64 -66 91 -66 158 0 54 -3 55 -64
32 -12 -4 -16 0 -16 15 0 12 -4 21 -10 21 -5 0 -10 5 -10 10 0 6 8 10 18 10
10 0 23 5 30 12 9 9 7 17 -9 35 -20 20 -21 26 -9 66 6 24 10 57 9 73 -2 16 3
44 10 62 12 29 12 38 -4 70 -9 20 -20 65 -23 99 l-5 62 -536 300 c-295 165
-543 302 -551 305 -16 6 -959 47 -1038 45 -29 -1 -171 -39 -367 -100z"/>
</g>
</svg>
